outputs/icons/device/screen_rotation_round.svg

<svg width="1200" height="1200" viewBox="0 0 1200 1200" fill="none" xmlns="http://www.w3.org/2000/svg"><g clip-path="url(#clip0_231_4437)"><path d="M511.495 87.5C481.994 58 434.495 58 405.495 87.5L87.495 405.5C57.995 435 57.995 482.5 87.495 511.5L688.495 1112.5C717.995 1142 765.495 1142 794.495 1112.5L1112.495 794.5C1141.995 765 1141.995 717.5 1112.495 688.5L511.495 87.5ZM705.995 1024L175.995 494C156.495 474.5 156.495 443 175.995 423.5L423.494 176C442.995 156.5 474.495 156.5 493.994 176L1024.495 706.5C1043.995 726 1043.995 757.5 1024.495 777L776.995 1024.5C757.495 1043.5 725.495 1043.5 705.995 1024ZM880.495 70C801.995 28.5 702.995 -1.5 590.495 1C581.495 1 577.495 12 583.495 18.5L757.495 192.5L823.995 126C978.495 199 1090.995 344.5 1118.495 519C1121.495 539.5 1140.495 553.5 1161.495 550C1181.995 547 1195.995 527.5 1192.495 507C1162.495 317 1044.495 157 880.495 70ZM442.495 1008L375.995 1074.5C221.495 1001.5 108.994 856 81.495 681.5C78.495 661 59.494 647 38.495 650.5C17.995 653.5 3.995 673 7.495 693.5C37.495 884 155.495 1044 319.495 1131C397.994 1172.5 496.995 1202.5 609.495 1200C618.495 1200 622.495 1189 616.495 1182.5L442.495 1008Z" fill="black"/></g><defs><clipPath id="clip0_231_4437"><path width="24" fill="white" d="M0 0H1200V1200H0V0z"/></clipPath></defs></svg>

<svg xmlns="http://www.w3.org/2000/svg" width="1200" height="1200" fill="none"><g clip-path="url(#a)"><path fill="#000" d="M511.495 87.5c-29.501-29.5-77-29.5-106 0l-318 318c-29.5 29.5-29.5 77 0 106l601 601c29.5 29.5 77 29.5 106 0l318-318c29.5-29.5 29.5-77 0-106zm194.5 936.5-530-530c-19.5-19.5-19.5-51 0-70.5L423.494 176c19.501-19.5 51.001-19.5 70.5 0l530.501 530.5c19.5 19.5 19.5 51 0 70.5l-247.5 247.5c-19.5 19-51.5 19-71-.5m174.5-954c-78.5-41.5-177.5-71.5-290-69-9 0-13 11-7 17.5l174 174 66.5-66.5c154.5 73 267 218.5 294.5 393 3 20.5 22 34.5 43 31 20.5-3 34.5-22.5 31-43-30-190-148-350-312-437m-438 938-66.5 66.5c-154.5-73-267.001-218.5-294.5-393-3-20.5-22.001-34.5-43-31-20.5 3-34.5 22.5-31 43 30 190.5 148 350.5 312 437.5 78.499 41.5 177.5 71.5 290 69 9 0 13-11 7-17.5z"/></g><defs><clipPath id="a"><path fill="#fff" d="M0 0h1200v1200H0z"/></clipPath></defs></svg>
